src/components/ProductFeature/images/icons/data-warehouse.svg

<svg width="100" height="100" viewBox="0 0 100 100" fill="none" xmlns="http://www.w3.org/2000/svg">
<path d="M59.8896 37.208C54.9433 37.208 50.9426 41.2087 50.9426 46.1549C50.9426 51.1012 54.9433 55.1019 59.8896 55.1019C64.8358 55.1019 68.8365 51.1012 68.8365 46.1549C68.8365 41.2087 64.84 37.208 59.8896 37.208V37.208Z" fill="black"/>
<path d="M88.6262 7H11.3689C5.05344 7 0 12.156 0 18.3689V74.2631C0 80.5785 5.15596 85.632 11.3689 85.632H14.6336L15.8959 90.6852C16.3153 92.26 17.6844 93.3126 19.2633 93.3126H30.3154C31.8942 93.3126 33.1565 92.26 33.5801 90.788L34.8423 85.7348H65.1577L66.4199 90.788C66.8393 92.26 68.2085 93.3126 69.7874 93.3126H80.8395C82.4183 93.3126 83.6806 92.26 84.1041 90.788L85.3664 85.7348H88.6311C94.9466 85.7348 100 80.5789 100 74.3659L99.9959 18.3697C99.9959 12.157 94.8399 7.00074 88.627 7.00074L88.6262 7ZM17.3676 26.6822C17.3676 24.8937 18.8395 23.4175 20.6323 23.4175C22.4208 23.4175 23.8969 24.8894 23.8969 26.6822V66.154C23.8969 67.9425 22.425 69.4187 20.6323 69.4187C18.8396 69.4187 17.3676 67.8398 17.3676 66.0512V26.6822ZM62.9454 65.6277C62.9454 67.4162 61.4734 68.8924 59.6807 68.8924C57.8921 68.8924 56.416 67.4204 56.416 65.6277V61.3104C54.6275 60.891 52.8389 60.1509 51.3628 59.0983L48.312 62.1491C47.6788 62.7823 46.84 63.0948 45.9971 63.0948C45.1542 63.0948 44.3113 62.7782 43.6823 62.1491C42.42 60.8869 42.42 58.7817 43.6823 57.5194L46.84 54.3617C45.8944 52.7828 45.1542 51.097 44.8418 49.3085H40.4218C38.6333 49.3085 37.1571 47.8365 37.1571 46.0438C37.1571 44.2552 38.6291 42.7791 40.4218 42.7791H44.9488C45.3682 40.9906 46.1083 39.3048 47.0539 37.7259L43.8962 34.5681C42.6339 33.3059 42.6339 31.2007 43.8962 29.9385C45.1584 28.6762 47.2636 28.6762 48.5259 29.9385L51.6836 33.0962C53.1555 32.1505 54.9483 31.4104 56.7368 30.991V26.5711C56.7368 24.7825 58.2088 23.3064 60.0015 23.3064C61.7901 23.3064 63.2662 24.7783 63.2662 26.5711V30.991C65.1617 31.4104 66.8433 32.1506 68.3194 33.0962L71.3702 30.0454C72.6325 28.7832 74.7376 28.7832 75.9999 30.0454C77.2622 31.3077 77.2622 33.4128 75.9999 34.6751L72.9491 37.7259C74.0017 39.3048 74.7376 40.9906 75.0543 42.8818H79.2646C81.0531 42.8818 82.5293 44.3538 82.5293 46.1465C82.5293 47.9351 81.0573 49.4112 79.2646 49.4112H75.0543C74.6349 51.3067 73.8947 52.9883 72.8422 54.5672L75.7902 57.5152C77.0525 58.7775 77.0525 60.8827 75.7902 62.1449C75.157 62.7781 74.3183 63.0906 73.4754 63.0906C72.6325 63.0906 71.7896 62.774 71.1605 62.1449L68.1098 59.0941C66.5309 60.0398 64.8451 60.7799 62.9538 61.1993L62.9454 65.6277Z" fill="black"/>
</svg>

<svg fill="none" xmlns="http://www.w3.org/2000/svg" viewBox="0 0 100 100"><path d="M59.89 37.208a8.94 8.94 0 00-8.947 8.947c0 4.946 4 8.947 8.947 8.947 4.946 0 8.947-4 8.947-8.947a8.938 8.938 0 00-8.947-8.947z" fill="#000"/><path d="M88.626 7H11.37C5.053 7 0 12.156 0 18.369v55.894c0 6.316 5.156 11.369 11.369 11.369h3.265l1.262 5.053c.42 1.575 1.788 2.628 3.367 2.628h11.052c1.58 0 2.841-1.053 3.265-2.525l1.262-5.053h30.316l1.262 5.053a3.503 3.503 0 003.367 2.525H80.84c1.58 0 2.842-1.053 3.265-2.525l1.262-5.053h3.265c6.316 0 11.369-5.156 11.369-11.37l-.004-55.995C99.996 12.157 94.84 7 88.627 7zM17.368 26.682a3.28 3.28 0 013.264-3.264 3.28 3.28 0 013.265 3.264v39.472a3.28 3.28 0 01-3.265 3.265c-1.792 0-3.264-1.58-3.264-3.368V26.682zm45.577 38.946a3.28 3.28 0 01-3.264 3.264 3.28 3.28 0 01-3.265-3.264V61.31c-1.788-.419-3.577-1.16-5.053-2.212l-3.051 3.051a3.256 3.256 0 01-2.315.946 3.266 3.266 0 01-2.315-.946c-1.262-1.262-1.262-3.367 0-4.63l3.158-3.157c-.946-1.58-1.686-3.265-1.998-5.053h-4.42a3.28 3.28 0 01-3.265-3.265 3.28 3.28 0 013.265-3.265h4.527c.42-1.788 1.16-3.474 2.105-5.053l-3.158-3.158c-1.262-1.262-1.262-3.367 0-4.63 1.262-1.262 3.368-1.262 4.63 0l3.158 3.158c1.472-.945 3.264-1.686 5.053-2.105v-4.42A3.28 3.28 0 0160 23.306a3.28 3.28 0 013.265 3.265v4.42a15.55 15.55 0 015.053 2.105l3.051-3.05c1.262-1.263 3.368-1.263 4.63 0 1.262 1.262 1.262 3.367 0 4.63l-3.05 3.05c1.052 1.579 1.788 3.265 2.104 5.156h4.21a3.28 3.28 0 013.265 3.265 3.28 3.28 0 01-3.264 3.264h-4.21a14.98 14.98 0 01-2.213 5.156l2.948 2.948c1.262 1.263 1.262 3.368 0 4.63a3.256 3.256 0 01-2.315.946 3.267 3.267 0 01-2.314-.946l-3.051-3.05c-1.58.945-3.265 1.685-5.156 2.104l-.009 4.429z" fill="#A970DC"/></svg>
